!!!COM:	la Rue, Pierre de
!!!CDT:	~1452///-1518/11/20
!!!OPR:	Missa De feria
!!!ONM:	1
!!!OTL:	Kyrie
!!!AGN:	Mass; Kyrie
!!!SCT:	Rue1009a
!!!SCA:	Rue1009a
!!!voices:	5
!!!voices-OPR:	5
**kern	**kern	**kern	**kern	**kern
*staff5	*staff4	*staff3	*staff2	*staff1
*Ivox	*Ivox	*Ivox	*Ivox	*Ivox
*I"Bassus	*I"Tenor2	*I"Tenor1	*I"Contra	*I"Discantus
*I'B	*I'T2	*I'T1	*I'C	*I'D
*>[A,B,C]	*>[A,B,C]	*>[A,B,C]	*>[A,B,C]	*>[A,B,C]
*>A	*>A	*>A	*>A	*>A
*clefF4	*clefGv2	*clefGv2	*clefGv2	*clefG2
*k[]	*k[]	*k[]	*k[]	*k[]
*M2/1	*M2/1	*M2/1	*M2/1	*M2/1
*met(C)	*met(C)	*met(C)	*met(C)	*met(C)
!!section: Kyrie I
!!!OMD: Kyrie I
=1-	=1-	=1-	=1-	=1-
!	!LO:TX:X=-40:Z=8:t=Canon at the upper fifth (one semibreve)	!	!	!
0E	0r	0r	1r	0r
.	.	.	[1B	.
=2	=2	=2	=2	=2
1G	0r	0r	1B]	0r
[1F	.	.	1d	.
=3	=3	=3	=3	=3
2F\]	0r	0r	1.c	0r
4E\	.	.	.	.
4D\	.	.	.	.
2E\	.	.	.	.
[2A\	.	.	4B\	.
.	.	.	4A/	.
=4	=4	=4	=4	=4
2A\]	0r	0r	1B	0r
2G#i\	.	.	.	.
1A	.	.	2r	.
.	.	.	2A/	.
=5	=5	=5	=5	=5
2r	0r	0r	2.c\	1r
2AA/	.	.	.	.
.	.	.	4d\	.
2.C/	.	.	2e\	[1e
.	.	.	2E/	.
4D\	.	.	.	.
=6	=6	=6	=6	=6
4E\	0r	0r	2.G/	1e]
4F\	.	.	.	.
1G	.	.	.	.
.	.	.	4A/	.
.	.	.	4B\	1g
.	.	.	4c\	.
4F\	.	.	[2d\	.
4E\	.	.	.	.
=7	=7	=7	=7	=7
0D	0r	0r	2d\]	1.f
.	.	.	4c\	.
.	.	.	4B\	.
.	.	.	2A/	.
.	.	.	[2d\	4e/
.	.	.	.	4d/
=8	=8	=8	=8	=8
1r	0r	0r	2d\]	1e
.	.	.	2c#i\	.
[1D	.	.	[1d	2r
.	.	.	.	2d/
=9	=9	=9	=9	=9
1D]	0r	0r	1d]	2.f/
.	.	.	.	4g/
[1AA	.	.	2c\	4a/
.	.	.	.	4b\
.	.	.	[2e\	[2cc\
=10	=10	=10	=10	=10
1AA]	1E	1r	2e\]	2cc\]
.	.	.	4d\	4b\
.	.	.	4c\	4a/
[1E	1E	1B	4B\	1g
.	.	.	4A/	.
.	.	.	4G/	.
.	.	.	4F/	.
=11	=11	=11	=11	=11
1E]	1G	1B	1E	2.g/
.	.	.	.	4a/
1D	[1F	1d	1r	2b\
.	.	.	.	[2a/
=12	=12	=12	=12	=12
0AA	2F/]	1.c	0A	2a/]
.	4E/	.	.	4g/
.	4D/	.	.	4f/
.	1E	.	.	1e
.	.	4B\	.	.
.	.	4A/	.	.
=13	=13	=13	=13	=13
1r	0D	1B	2.F/	2r
.	.	.	.	2.f/
.	.	.	4D/	.
2r	.	[1A	4F/	.
.	.	.	4G/	4d/
2D\	.	.	2A/	4f/
.	.	.	.	4g/
=14	=14	=14	=14	=14
2.F\	2r	1A]	2D/	2a/
.	2D/	.	1A	2.f/
4G\	.	.	.	.
1A	2.F/	2r	.	.
.	.	.	.	4g/
.	.	2A/	4G/	4a/
.	4G/	.	4F/	4b\
=15	=15	=15	=15	=15
2.AA/	2A/	2.c\	0E	1cc
.	1A	.	.	.
4BB/	.	4d\	.	.
4C/	.	2e\	.	2cc\
4D\	.	.	.	.
2E\	2G/	[2e\	.	[2b\
=16	=16	=16	=16	=16
1F	1A	2e\]	1r	4b\]
.	.	.	.	4a/
.	.	2d\	.	1a
1E	1B	1e	1G	.
.	.	.	.	2g#i/
=17	=17	=17	=17	=17
0AA	0A	1f	[0c	1a
.	.	[1e	.	2r
.	.	.	.	[2cc\
=18	=18	=18	=18	=18
2r	2r	1e]	0c]	4cc\]
.	.	.	.	4b\
1AA	1A	.	.	1a
.	.	2r	.	.
2AA/	2A/	[2e\	.	4g/
.	.	.	.	4f/
=19	=19	=19	=19	=19
2.C/	2G/	2e\]	1c	2e/
.	2E/	2e\	.	2cc\
4BB/	.	.	.	.
2.GG/	2.G/	2d\	2.d\	2b\
.	.	2B\	.	[2g/
4AA/	4F/	.	4c\	.
=20	=20	=20	=20	=20
4BB/	2.D/	2B\	2B\	2g/]
4C/	.	.	.	.
1D	.	4A/	4A/	2f/
.	4E/	4G/	4G/	.
.	4F/	1F	1F	1d
.	4G/	.	.	.
4C/	[2A/	.	.	.
4BB/	.	.	.	.
=21	=21	=21	=21	=21
1AA	2A/]	2F/	2F/	2.c/
.	2A/	1E	1E	.
.	.	.	.	4d/
1C	2G/	.	.	4e/
.	.	.	.	4f/
.	[2E/	2E/	2E/	[2g/
=22	=22	=22	=22	=22
1GG	4E/]	1G	1G	4g/]
.	4F/	.	.	4f/
.	4G/	.	.	2e/
.	4E/	.	.	.
1D	1F	[1A	[1A	4d/
.	.	.	.	4c/
.	.	.	.	2d/
=23	=23	=23	=23	=23
1AA	0El	1A]	1A]	0el
*^	*	*	*	*
1EEl\	1El/	.	1Gl	1Gl	.
*v	*v	*	*	*	*
!!LO:LB:i:g=z
=24||	=24||	=24||	=24||	=24||
*>B	*>B	*>B	*>B	*>B
*clefF4	*clefGv2	*clefGv2	*clefGv2	*clefG2
*k[]	*k[]	*k[]	*k[]	*k[]
*M2/1	*M2/1	*M2/1	*M2/1	*M2/1
*met(C2)	*met(C2)	*met(C2)	*met(C2)	*met(C2)
!!section: Christe
!!!OMD: Christe
!	!	!LO:TX:X=-40:Z=8:t=Canon at the lower fifth (1 semibreve)	!	!
1r	0r	0r	0d	0r
[1G	.	.	.	.
=25.	=25.	=25.	=25.	=25.
1G]	0r	0r	1B	0r
1E	.	.	1c	.
=26	=26	=26	=26	=26
1F	0r	0r	1A	0r
1D	.	.	[1B	.
=27.	=27.	=27.	=27.	=27.
[0E	0r	0r	1B]	1r
.	.	.	2.G/	[1g
.	.	.	4A/	.
=28	=28	=28	=28	=28
1E]	0r	0r	2B\	1g]
.	.	.	1c	.
1C	.	.	.	1e
.	.	.	[2A/	.
=29.	=29.	=29.	=29.	=29.
1D	0r	0r	2A/]	1f
.	.	.	1B	.
1BB	.	.	.	1d
.	.	.	[2G/	.
=30	=30	=30	=30	=30
0C	0r	0r	2G/]	1.e
.	.	.	2F/	.
.	.	.	1E	.
.	.	.	.	4d/
.	.	.	.	4c/
=31.	=31.	=31.	=31.	=31.
0GG	1r	1d	0D	0B
.	1G	1d	.	.
=32	=32	=32	=32	=32
0r	1G	1B	0r	1r
.	1E	1c	.	1g
=33.	=33.	=33.	=33.	=33.
0r	1F	1A	1r	1a
.	1D	[1d	1A	1a
=34	=34	=34	=34	=34
0GG	0G	1d]	2G/	2b\
.	.	.	2.B\	2.dd\
.	.	1B	.	.
.	.	.	4c\	4cc\
.	.	.	2d\	2b\
=35.	=35.	=35.	=35.	=35.
1C	1E	1c	1e	2a/
.	.	.	.	1g
1D	1F	1A	[1d	.
.	.	.	.	2f#i/
=36	=36	=36	=36	=36
0GG	1D	0B	1d]	1.g
.	[1E	.	1B	.
.	.	.	.	2e/
=37.	=37.	=37.	=37.	=37.
[0AA	1E]	1r	2c\	1e
.	.	.	1A	.
.	1r	[1e	.	2r
.	.	.	4G/	[2cc\
.	.	.	4F/	.
=38	=38	=38	=38	=38
0AA]	1.A	2e\]	1E	2cc\]
.	.	2d\	.	2b\
.	.	2c\	1E	[1a
.	2G/	2B\	.	.
=39.	=39.	=39.	=39.	=39.
0D	2F/	1A	2.F/	2a/]
.	2E/	.	.	2g/
.	.	.	4G/	.
.	1D	[1d	1A	2.f/
.	.	.	.	4e/
=40	=40	=40	=40	=40
1GG	0G	1d]	1B	1d
1E	.	1c	1G	2.g/
.	.	.	.	4a/
=41.	=41.	=41.	=41.	=41.
1D	1F	0d	0r	2b\
.	.	.	.	1a
1GG	[1G	.	.	.
.	.	.	.	[2g/
=42	=42	=42	=42	=42
1r	1G]	1e	1r	2g/]
.	.	.	.	4f/
.	.	.	.	4e/
1D	1A	[1d	1A	1f
=43.	=43.	=43.	=43.	=43.
2BB/	0G	1d]	2B\	1g
2.GG/	.	.	2.d\	.
.	.	1r	.	[1dd
4AA/	.	.	4c\	.
4BB/	.	.	2B\	.
4C/	.	.	.	.
=44	=44	=44	=44	=44
1D	0r	0r	2A/	1dd]
.	.	.	1B	.
1E	.	.	.	1b
.	.	.	2G/	.
=45.	=45.	=45.	=45.	=45.
1AA	0r	1r	4A/	1cc
.	.	.	4G/	.
.	.	.	4F#i/	.
.	.	.	4E/	.
1D	.	[1d	1F#i	1a
=46	=46	=46	=46	=46
0GG	0G	1d]	1G	2b\
.	.	.	.	2.dd\
.	.	1B	1D	.
.	.	.	.	4cc\
.	.	.	.	2b\
=47.	=47.	=47.	=47.	=47.
1r	1E	1c	1G	2a/
.	.	.	.	1g
2.D\	1F	1A	1A	.
.	.	.	.	2f#i/
4C/	.	.	.	.
=48	=48	=48	=48	=48
4BB/	1D	0d	1G	0g
4AA/	.	.	.	.
1GG	.	.	.	.
.	[1G	.	2.B\	.
[2G\	.	.	.	.
.	.	.	4c\	.
=49.	=49.	=49.	=49.	=49.
4G\]	1G]	1B	2d\	0r
4F\	.	.	.	.
4E\	.	.	1e	.
4D\	.	.	.	.
1C	1E	1c	.	.
.	.	.	2e\	.
=50	=50	=50	=50	=50
0D	1F	0A	1d	1r
.	[1D	.	2r	[1dd
.	.	.	[2d\	.
=51.	=51.	=51.	=51.	=51.
1BB	1D]	0d	4d\]	1dd]
.	.	.	4c\	.
.	.	.	2.B\	.
1GG	[1G	.	.	1b
.	.	.	4A/	.
.	.	.	4G/	.
.	.	.	4F/	.
=52	=52	=52	=52	=52
1AA	1G]	1c	1E	1cc
1D	1F	[1dl	1F	1a
=53.	=53.	=53.	=53.	=53.
0GGl	0Gl	0d]	0Dl	0bl
!!LO:LB:i:g=z
=54||	=54||	=54||	=54||	=54||
*>C	*>C	*>C	*>C	*>C
*clefF4	*clefGv2	*clefGv2	*clefGv2	*clefG2
*k[]	*k[]	*k[]	*k[]	*k[]
*M2/1	*M2/1	*M2/1	*M2/1	*M2/1
*met(C)	*met(C)	*met(C)	*met(C)	*met(C)
!!section: Kyrie II
!!!OMD: Kyrie II
!	!LO:TX:X=-40:Z=8:t=Canon at the upper fifth (1 semibreve)	!	!	!
1r	0r	0r	0r	0g
1G	.	.	.	.
=55	=55	=55	=55	=55
1A	0r	0r	0r	2e/
.	.	.	.	2f/
1G	.	.	.	2g/
.	.	.	.	[2e/
=56	=56	=56	=56	=56
2E\	0r	0r	0r	2e/]
2F\	.	.	.	2d/
2G\	.	.	.	2e/
[2E\	.	.	.	2g/
=57	=57	=57	=57	=57
2E\]	0r	0r	0r	2.f/
2D\	.	.	.	.
.	.	.	.	4e/
2E\	.	.	.	2c/
2G\	.	.	.	[2e/
=58	=58	=58	=58	=58
2.F\	0r	0r	1r	2e/]
.	.	.	.	2d/
4E\	.	.	.	.
2.C/	.	.	1c	1e
4D\	.	.	.	.
=59	=59	=59	=59	=59
4E\	0r	0r	2A/	2c/
4F\	.	.	.	.
2D\	.	.	2B\	2d/
1AA	.	.	2c\	2e/
.	.	.	[2A/	[2c/
=60	=60	=60	=60	=60
1E	0r	0r	2A/]	2c/]
.	.	.	2G/	2B/
1AA	.	.	2A/	2c/
.	.	.	2c\	[2A/
=61	=61	=61	=61	=61
1r	1r	0r	1B	2A/]
.	.	.	.	2G#i/
1AA	2.E/	.	1A	1A
.	4F/	.	.	.
=62	=62	=62	=62	=62
2E\	4G/	2.B\	1E	0r
.	4A/	.	.	.
1G	1B	.	.	.
.	.	4c\	.	.
.	.	4d\	1r	.
.	.	4e\	.	.
2D\	[2A/	[2f\	.	.
=63	=63	=63	=63	=63
2F\	2A/]	2f\]	0r	0r
2C/	2G/	1e	.	.
1D	1F	.	.	.
.	.	2d\	.	.
=64	=64	=64	=64	=64
1AA	0E	1c	1r	2r
.	.	.	.	2.e/
1r	.	[1B	2r	.
.	.	.	.	4f/
.	.	.	[2E/	4g/
.	.	.	.	4a/
=65	=65	=65	=65	=65
0r	0r	1B]	4E/]	2b\
.	.	.	4F/	.
.	.	.	4G/	2.g/
.	.	.	4A/	.
.	.	1r	2B\	.
.	.	.	.	4a/
.	.	.	[2G/	4b\
.	.	.	.	4cc\
=66	=66	=66	=66	=66
1r	0r	0r	4G/]	2dd\
.	.	.	4A/	.
.	.	.	4B\	1cc
.	.	.	4c\	.
1GG	.	.	1d	.
.	.	.	.	2b\
=67	=67	=67	=67	=67
2.AA/	2.C/	1r	1c	1cc
4BB/	4D/	.	.	.
4C/	4E/	2.G/	1r	1r
4D\	4F/	.	.	.
[2E\	[2G/	.	.	.
.	.	4A/	.	.
=68	=68	=68	=68	=68
2E\]	2G/]	4B\	0r	0r
.	.	4c\	.	.
2D\	2F/	1d	.	.
1AA	1E	.	.	.
.	.	2c\	.	.
=69	=69	=69	=69	=69
0D	1D	1B	1.d	2r
.	.	.	.	2.f/
.	1r	1A	.	.
.	.	.	.	4g/
.	.	.	4c\	4a/
.	.	.	4B\	4b\
=70	=70	=70	=70	=70
0r	0r	0r	4A/	2.cc\
.	.	.	4B\	.
.	.	.	4c\	.
.	.	.	4d\	8b/L
.	.	.	.	8a/J
.	.	.	1e	2cc\
.	.	.	.	[2b\
=71	=71	=71	=71	=71
0r	0r	0r	4d\	2b\]
.	.	.	4c\	.
.	.	.	4B\	2.a/
.	.	.	4A/	.
.	.	.	1B	.
.	.	.	.	4g#i/
.	.	.	.	2g#i/
=72	=72	=72	=72	=72
2r	2r	1r	0A	0a
1D	2.F/	.	.	.
.	.	2r	.	.
.	4G/	.	.	.
2C/	4A/	[2c\	.	.
.	4B\	.	.	.
=73	=73	=73	=73	=73
2AA/	1.c	4c\]	0r	0r
.	.	4d\	.	.
2C/	.	4e\	.	.
.	.	4f\	.	.
2.C/	.	[1g	.	.
.	4B\	.	.	.
4D\	4A/	.	.	.
=74	=74	=74	=74	=74
2E\	2G/	2g\]	0r	0r
2F\	2A/	4f\	.	.
.	.	4e\	.	.
2.G\	2B\	2d\	.	.
.	[2A/	2e\	.	.
4F\	.	.	.	.
=75	=75	=75	=75	=75
2D\	2A/]	2f\	0r	1r
2E\	2G/	1e	.	.
1F	2A/	.	.	1a
.	2F/	2d\	.	.
=76	=76	=76	=76	=76
2.C/	0E	2e\	2r	2g/
.	.	2c\	2A/	2e/
4D\	.	.	.	.
4E\	.	[1B	2G/	2.g/
4F\	.	.	.	.
[2G\	.	.	2E/	.
.	.	.	.	4f/
=77	=77	=77	=77	=77
2G\]	0r	1B]	1G	4d/
.	.	.	.	4e/
4F\	.	.	.	1f
4E\	.	.	.	.
2D\	.	1r	2A/	.
2E\	.	.	2G/	[2e/
=78	=78	=78	=78	=78
1F	1A	1r	1A	2e/]
.	.	.	.	2d/
1E	2G/	1e	1B	1e
.	2E/	.	.	.
=79	=79	=79	=79	=79
0r	2.G/	2d\	2B\	0r
.	.	2B\	2.d\	.
.	4F/	.	.	.
.	4D/	2.d\	.	.
.	4E/	.	4c\	.
.	[2F/	.	4A/	.
.	.	4c\	4B\	.
=80	=80	=80	=80	=80
1C	2F/]	4A/	1c	0r
.	.	4B\	.	.
.	2E/	1c	.	.
1GG	1D	.	1r	.
.	.	2B\	.	.
=81	=81	=81	=81	=81
2r	1C	1A	0c	1e
1C	.	.	.	.
.	1r	1G	.	1g
2E\	.	.	.	.
=82	=82	=82	=82	=82
1D	0r	0r	2A/	1f
.	.	.	2B\	.
1AA	.	.	2.c\	2e/
.	.	.	.	[2a/
.	.	.	4A/	.
=83	=83	=83	=83	=83
2r	0r	0r	1B	2a/]
2E\	.	.	.	2g/
2.F\	.	.	2A/	2.a/
.	.	.	[2c\	.
4E\	.	.	.	4g/
=84	=84	=84	=84	=84
2.C/	1E	1r	4c\]	2e/
.	.	.	4B\	.
.	.	.	2.G/	2.g/
4D\	.	.	.	.
4E\	1G	1B	.	.
4F\	.	.	4A/	4f/
2G\	.	.	4B\	2d/
.	.	.	4G/	.
=85	=85	=85	=85	=85
2.D\	1F	1d	1A	1f
4C/	.	.	.	.
2AA/	2E/	1c	2.A/	2r
2C/	[2A/	.	.	2e/
.	.	.	4G/	.
=86	=86	=86	=86	=86
2D\	2A/]	2B\	2F/	2f/
2E\	2G/	1e	2E/	2g/
2AA/	2.A/	.	2r	2c/
2D\	.	2d\	2A/	2f/
.	4G/	.	.	.
=87	=87	=87	=87	=87
2.C/	2E/	2.e\	1c	2g/
.	2.G/	.	.	2e/
4BB/	.	4d\	.	.
2GG/	.	2B\	1d	2.g/
.	4F/	.	.	.
[2BB-/	2D/	[2d\	.	.
.	.	.	.	4f/
=88	=88	=88	=88	=88
4BB-/]	1F	4d\]	2B\	2d/
4AA/	.	4c\	.	.
2FF/	.	2A/	1c	2.a/
1AA	2r	1c	.	.
.	.	.	.	4g/
.	[2E/	.	4B\	2e/
.	.	.	4A/	.
=89	=89	=89	=89	=89
1EE	2E/]	2r	1G	2.g/
.	1G	1B	.	.
.	.	.	.	4f/
1r	.	.	1r	2d/
.	4F/	[2d\	.	[2f/
.	4E/	.	.	.
=90	=90	=90	=90	=90
0r	2D/	2d\]	0r	2f/]
.	2E/	4c\	.	2.e/
.	.	4B\	.	.
.	1F	2A/	.	.
.	.	.	.	4d/
.	.	2B\	.	2d/
=91	=91	=91	=91	=91
0EEl	0El	1c	0Gl	0el
.	.	1Bl	.	.
==	==	==	==	==
*-	*-	*-	*-	*-
!!!RDF**kern: l=long note in original notation
!!!RDF**kern: i=editorial accidental
!!!RDF**kern: V=start of tuplet marker
!!!RDF**kern: Z=end of tuplet marker
!!!ENC:	Chris Gage 01-15-2013
!!!END:	2013/07/17/
!!!EED:	Jesse Rodin
!!!EEV:	2013/07/19/
!!!ONB:	Translated from MusicXML and edited on 2013/07/19/ by Craig Sapp
!!muse2ps: T^@{OPR}^u^@{ONM}{. }@{OTL}^C^@{COM}^i2I150v85,85,85,85,130Q16c80
